X:1
T:Road to Lisdoonvarna, The
T:All the Ways to Galway
R:reel
Z:id:hn-reel-195
M:C|
K:D
d2fd cA~A2|BG~G2 cA~A2|d2fd cA~A2|BGAF D4:|
~A3G AB=cA|GAGF EFG2|ABAG AB=cA|GE=cE D4|
DAAG AB=cA|GE~E2 =cEGE|DAAG AB=cA|GE=cE D4|

